;FLAVOR:Marlin
;TIME:29197
;Filament used: 17.7818m
;Layer height: 0.2
;MINX:49.5
;MINY:33
;MINZ:0.2
;MAXX:170.5
;MAXY:187
;MAXZ:16
;Generated with Cura_SteamEngine 4.4.1
M140 S60
M105
M190 S60
M104 S200
M105
M109 S200
M82 ;absolute extrusion mode
M201 X500.00 Y500.00 Z100.00 E5000.00 ;Setup machine max acceleration
M203 X500.00 Y500.00 Z10.00 E50.00 ;Setup machine max feedrate
M204 P500.00 R1000.00 T500.00 ;Setup Print/Retract/Travel acceleration
M205 X8.00 Y8.00 Z0.40 E5.00 ;Setup Jerk
M220 S100 ;Reset Feedrate
M221 S100 ;Reset Flowrate

G28 ;Home

G92 E0 ;Reset Extruder
G1 Z2.0 F3000 ;Move Z Axis up
G1 X10.1 Y20 Z0.28 F5000.0 ;Move to start position
G1 X10.1 Y200.0 Z0.28 F1500.0 E15 ;Draw the first line
G1 X10.4 Y200.0 Z0.28 F5000.0 ;Move to side a little
G1 X10.4 Y20 Z0.28 F1500.0 E30 ;Draw the second line
G92 E0 ;Reset Extruder
G1 Z2.0 F3000 ;Move Z Axis up

G92 E0
G92 E0
G1 F1500 E-6.5
;LAYER_COUNT:80
;LAYER:0
M107
G0 F6000 X51.496 Y37.703 Z0.2
;TYPE:SKIRT
G1 F1500 E0
G1 F1200 X52.066 Y36.958 E0.0312
G1 X52.698 Y36.264 E0.06242
G1 X53.386 Y35.627 E0.0936
G1 X54.126 Y35.051 E0.12479
G1 X54.912 Y34.539 E0.15599
G1 X55.739 Y34.097 E0.18718
G1 X56.601 Y33.727 E0.21838
G1 X57.491 Y33.431 E0.24958
G1 X58.403 Y33.213 E0.28077
G1 X59.33 Y33.072 E0.31195
G1 X60.201 Y33.013 E0.34099
G1 X60.522 Y33.004 E0.35167
G1 X60.83 Y33 E0.36191
G1 X158.793 Y33 E3.62018
G1 X158.951 Y33.001 E3.62543
G1 X159.649 Y33.011 E3.64865
G1 X160.585 Y33.065 E3.67983
G1 X161.513 Y33.197 E3.71101
G1 X162.427 Y33.409 E3.74222
G1 X163.319 Y33.698 E3.7734
G1 X164.184 Y34.061 E3.8046
G1 X165.014 Y34.497 E3.83579
G1 X165.805 Y35.002 E3.867
G1 X166.549 Y35.573 E3.89819
G1 X167.242 Y36.205 E3.92939
G1 X167.879 Y36.893 E3.96057
G1 X168.454 Y37.634 E3.99177
G1 X168.965 Y38.42 E4.02295
G1 X169.407 Y39.248 E4.05417
G1 X169.776 Y40.11 E4.08535
G1 X170.071 Y41 E4.11654
G1 X170.289 Y41.912 E4.14773
G1 X170.429 Y42.84 E4.17894
G1 X170.487 Y43.701 E4.20764
G1 X170.496 Y44.021 E4.21829
G1 X170.5 Y44.33 E4.22857
G1 X170.5 Y175.264 E8.58345
G1 X170.499 Y175.4 E8.58797
G1 X170.49 Y176.127 E8.61216
G1 X170.439 Y177.064 E8.64337
G1 X170.307 Y177.992 E8.67454
G1 X170.098 Y178.906 E8.70573
G1 X169.811 Y179.799 E8.73693
G1 X169.449 Y180.665 E8.76814
G1 X169.015 Y181.496 E8.79933
G1 X168.511 Y182.287 E8.83052
G1 X167.942 Y183.032 E8.8617
G1 X167.311 Y183.727 E8.89292
G1 X166.624 Y184.365 E8.92411
G1 X165.885 Y184.942 E8.95529
G1 X165.099 Y185.454 E8.98649
G1 X164.273 Y185.897 E9.01766
G1 X163.411 Y186.269 E9.04889
G1 X162.522 Y186.565 E9.08005
G1 X161.61 Y186.785 E9.11126
G1 X160.683 Y186.926 E9.14244
G1 X159.799 Y186.987 E9.17192
G1 X159.478 Y186.996 E9.1826
G1 X159.17 Y187 E9.19284
G1 X61.207 Y187 E12.4511
G1 X61.065 Y186.999 E12.45583
G1 X60.367 Y186.99 E12.47904
G1 X59.431 Y186.938 E12.51022
G1 X58.502 Y186.806 E12.54143
G1 X57.588 Y186.596 E12.57262
G1 X56.695 Y186.309 E12.60382
G1 X55.83 Y185.946 E12.63502
G1 X54.999 Y185.512 E12.6662
G1 X54.208 Y185.008 E12.6974
G1 X53.463 Y184.438 E12.7286
G1 X52.769 Y183.807 E12.7598
G1 X52.132 Y183.12 E12.79096
G1 X51.555 Y182.38 E12.82217
G1 X51.043 Y181.594 E12.85337
G1 X50.6 Y180.767 E12.88457
G1 X50.229 Y179.906 E12.91575
G1 X49.933 Y179.016 E12.94695
G1 X49.714 Y178.104 E12.97814
G1 X49.573 Y177.177 E13.00933
G1 X49.513 Y176.288 E13.03897
G1 X49.504 Y175.955 E13.05005
G1 X49.5 Y175.658 E13.05993
G1 X49.5 Y44.674 E17.41647
G1 X49.501 Y44.525 E17.42143
G1 X49.51 Y43.86 E17.44355
G1 X49.563 Y42.924 E17.47473
G1 X49.695 Y41.995 E17.50594
G1 X49.906 Y41.081 E17.53714
G1 X50.194 Y40.189 E17.56831
G1 X50.557 Y39.324 E17.59951
G1 X50.992 Y38.493 E17.63071
G1 X51.496 Y37.703 E17.66188
G0 F6000 X51.892 Y37.835
G1 F1200 X52.461 Y37.111 E17.69251
G1 X53.089 Y36.439 E17.7231
G1 X53.774 Y35.823 E17.75374
G1 X54.51 Y35.27 E17.78436
G1 X55.291 Y34.782 E17.81499
G1 X56.111 Y34.364 E17.8456
G1 X56.965 Y34.019 E17.87623
G1 X57.845 Y33.749 E17.90685
G1 X58.745 Y33.557 E17.93746
G1 X59.659 Y33.443 E17.96809
G1 X60.212 Y33.413 E17.98651
G1 X60.533 Y33.404 E17.99719
G1 X60.83 Y33.4 E18.00707
G1 X158.793 Y33.4 E21.26533
G1 X158.945 Y33.401 E21.27039
G1 X159.643 Y33.411 E21.29361
G1 X160.562 Y33.464 E21.32422
G1 X161.473 Y33.597 E21.35485
G1 X162.369 Y33.808 E21.38546
G1 X163.243 Y34.096 E21.41607
G1 X164.09 Y34.459 E21.44672
G1 X164.901 Y34.894 E21.47733
G1 X165.671 Y35.398 E21.50794
G1 X166.395 Y35.967 E21.53856
G1 X167.067 Y36.597 E21.5692
G1 X167.682 Y37.282 E21.59982
G1 X168.235 Y38.018 E21.63044
G1 X168.722 Y38.799 E21.66105
G1 X169.139 Y39.62 E21.69168
G1 X169.484 Y40.474 E21.72231
G1 X169.753 Y41.354 E21.75292
G1 X169.945 Y42.255 E21.78356
G1 X170.058 Y43.168 E21.81416
G1 X170.087 Y43.712 E21.83228
G1 X170.096 Y44.032 E21.84292
G1 X170.1 Y44.33 E21.85284
G1 X170.1 Y175.264 E26.20772
G1 X170.099 Y175.395 E26.21208
G1 X170.09 Y176.122 E26.23626
G1 X170.039 Y177.041 E26.26687
G1 X169.908 Y177.953 E26.29751
G1 X169.698 Y178.849 E26.32812
G1 X169.412 Y179.724 E26.35874
G1 X169.051 Y180.571 E26.38936
G1 X168.617 Y181.383 E26.41999
G1 X168.115 Y182.155 E26.45062
G1 X167.547 Y182.88 E26.48125
G1 X166.919 Y183.553 E26.51186
G1 X166.235 Y184.169 E26.54248
G1 X165.5 Y184.723 E26.57309
G1 X164.72 Y185.212 E26.60371
G1 X163.9 Y185.631 E26.63434
G1 X163.047 Y185.977 E26.66496
G1 X162.167 Y186.248 E26.69558
G1 X161.267 Y186.441 E26.7262
G1 X160.353 Y186.556 E26.75684
G1 X159.788 Y186.587 E26.77566
G1 X159.467 Y186.596 E26.78634
G1 X159.17 Y186.6 E26.79622
G1 X61.207 Y186.6 E30.05448
G1 X61.07 Y186.599 E30.05903
G1 X60.372 Y186.59 E30.08225
G1 X59.453 Y186.538 E30.11287
G1 X58.542 Y186.407 E30.14348
G1 X57.646 Y186.197 E30.17409
G1 X56.771 Y185.91 E30.20472
G1 X55.924 Y185.548 E30.23535
G1 X55.112 Y185.114 E30.26597
G1 X54.341 Y184.612 E30.29657
G1 X53.616 Y184.044 E30.32721
G1 X52.943 Y183.415 E30.35785
G1 X52.328 Y182.731 E30.38844
G1 X51.774 Y181.996 E30.41905
G1 X51.286 Y181.215 E30.44968
G1 X50.867 Y180.395 E30.48031
G1 X50.521 Y179.542 E30.51093
G1 X50.251 Y178.662 E30.54154
G1 X50.058 Y177.761 E30.57219
G1 X49.944 Y176.848 E30.60279
G1 X49.913 Y176.277 E30.62181
G1 X49.904 Y175.944 E30.63289
G1 X49.9 Y175.658 E30.6424
G1 X49.9 Y44.674 E34.99895
G1 X49.901 Y44.531 E35.00371
G1 X49.91 Y43.866 E35.02583
G1 X49.962 Y42.946 E35.05647
G1 X50.094 Y42.035 E35.08709
G1 X50.305 Y41.139 E35.11771
G1 X50.592 Y40.264 E35.14833
G1 X50.955 Y39.418 E35.17895
G1 X51.389 Y38.606 E35.20958
G1 X51.892 Y37.835 E35.24019
G0 F6000 X52.288 Y37.971
G1 F1200 X52.855 Y37.267 E35.27026
G1 X53.481 Y36.617 E35.30027
G1 X54.162 Y36.024 E35.33031
G1 X54.894 Y35.494 E35.36037
G1 X55.669 Y35.031 E35.39039
G1 X56.482 Y34.638 E35.42043
G1 X57.327 Y34.318 E35.45048
G1 X58.196 Y34.075 E35.48049
G1 X59.084 Y33.909 E35.51054
G1 X60.223 Y33.813 E35.54856
G1 X60.544 Y33.804 E35.55924
G1 X60.83 Y33.8 E35.56875
G1 X158.793 Y33.8 E38.82701
G1 X158.939 Y33.801 E38.83187
G1 X159.637 Y33.811 E38.85509
G1 X160.539 Y33.864 E38.88514
G1 X161.432 Y33.996 E38.91516
G1 X162.31 Y34.207 E38.9452
G1 X163.166 Y34.495 E38.97524
G1 X163.993 Y34.857 E39.00526
G1 X164.785 Y35.292 E39.03531
G1 X165.536 Y35.794 E39.06536
G1 X166.239 Y36.361 E39.0954
G1 X166.889 Y36.988 E39.12544
G1 X167.481 Y37.67 E39.15547
G1 X168.011 Y38.401 E39.18551
G1 X168.473 Y39.177 E39.21554
G1 X168.866 Y39.99 E39.24558
G1 X169.184 Y40.835 E39.27561
G1 X169.427 Y41.705 E39.30565
G1 X169.592 Y42.593 E39.33569
G1 X169.687 Y43.723 E39.37341
G1 X169.696 Y44.043 E39.38405
G1 X169.7 Y44.33 E39.3936
G1 X169.7 Y175.264 E43.74848
G1 X169.699 Y175.39 E43.75267
G1 X169.69 Y176.117 E43.77686
G1 X169.639 Y177.019 E43.80691
G1 X169.508 Y177.913 E43.83696
G1 X169.299 Y178.791 E43.86698
G1 X169.013 Y179.648 E43.89702
G1 X168.652 Y180.476 E43.92707
G1 X168.22 Y181.268 E43.95707
G1 X167.719 Y182.02 E43.98713
G1 X167.153 Y182.724 E44.01717
G1 X166.528 Y183.375 E44.04719
G1 X165.847 Y183.969 E44.07724
G1 X165.116 Y184.5 E44.10729
G1 X164.342 Y184.964 E44.13731
G1 X163.529 Y185.358 E44.16736
G1 X162.685 Y185.678 E44.19738
G1 X161.815 Y185.923 E44.22744
G1 X160.928 Y186.089 E44.25746
G1 X159.777 Y186.187 E44.29588
G1 X159.456 Y186.196 E44.30656
G1 X159.17 Y186.2 E44.31607
G1 X61.207 Y186.2 E47.57433
G1 X61.075 Y186.199 E47.57872
G1 X60.377 Y186.19 E47.60194
G1 X59.476 Y186.139 E47.63196
G1 X58.582 Y186.007 E47.66201
G1 X57.704 Y185.798 E47.69203
G1 X56.847 Y185.511 E47.72209
G1 X56.02 Y185.15 E47.7521
G1 X55.227 Y184.717 E47.78215
G1 X54.476 Y184.216 E47.81218
G1 X53.772 Y183.65 E47.84223
G1 X53.121 Y183.024 E47.87226
G1 X52.528 Y182.343 E47.9023
G1 X51.998 Y181.612 E47.93233
G1 X51.534 Y180.837 E47.96237
G1 X51.14 Y180.024 E47.99242
G1 X50.82 Y179.18 E48.02244
G1 X50.576 Y178.31 E48.0525
G1 X50.41 Y177.422 E48.08254
G1 X50.313 Y176.267 E48.12109
G1 X50.304 Y175.934 E48.13217
G1 X50.3 Y175.658 E48.14135
G1 X50.3 Y44.674 E52.4979
G1 X50.301 Y44.536 E52.50249
G1 X50.31 Y43.871 E52.52461
G1 X50.362 Y42.969 E52.55466
G1 X50.494 Y42.076 E52.58468
G1 X50.704 Y41.198 E52.61471
G1 X50.991 Y40.341 E52.64477
G1 X51.353 Y39.514 E52.6748
G1 X51.786 Y38.722 E52.70482
G1 X52.288 Y37.971 E52.73486
G1 F1500 E46.23486
;MESH:phone_case.stl
G0 F6000 X59.835 Y44.42
G0 X60.92 Y44.42
G0 X61.5 Y175
;TYPE:WALL-INNER
G1 F1500 E52.73486
G1 F1200 X61.5 Y45 E57.05868
G1 X158.5 Y45 E60.28491
G1 X158.5 Y175 E64.60873
G1 X61.5 Y175 E67.83496
G0 F6000 X61.1 Y175.4
G1 F1200 X61.1 Y44.6 E72.18539
G1 X158.9 Y44.6 E75.43823
G1 X158.9 Y175.4 E79.78866
G1 X61.1 Y175.4 E83.0415
G0 F6000 X60.7 Y175.8
;TYPE:WALL-OUTER
G1 F1200 X60.7 Y44.2 E87.41853
G1 X159.3 Y44.2 E90.69798
G1 X159.3 Y175.8 E95.07501
G1 X60.7 Y175.8 E98.35446
G0 F6000 X60.97 Y175.53
G0 X61.61 Y174.61
G0 X61.89 Y174.61
;TYPE:SKIN
G1 F1200 X61.89 Y45.39 E102.65234
G1 X158.11 Y45.39 E105.85263
G1 X158.11 Y174.61 E110.1505
G1 X61.89 Y174.61 E113.35079
G0 F6000 X62.443 Y174.448
G1 F1200 X62.049 Y174.055 E113.3693
G0 F6000 X62.049 Y173.489
G1 F1200 X63.008 Y174.448 E113.41441
G0 F6000 X63.574 Y174.448
G1 F1200 X62.049 Y172.923 E113.48614
G0 F6000 X62.049 Y172.357
G1 F1200 X64.14 Y174.448 E113.5845
G0 F6000 X64.705 Y174.448
G1 F1200 X62.049 Y171.792 E113.70943
G0 F6000 X62.049 Y171.226
G1 F1200 X65.271 Y174.448 E113.86098
G0 F6000 X65.837 Y174.448
G1 F1200 X62.049 Y170.66 E114.03915
G0 F6000 X62.049 Y170.095
G1 F1200 X66.402 Y174.448 E114.24391
G0 F6000 X66.968 Y174.448
G1 F1200 X62.049 Y169.529 E114.47528
G0 F6000 X62.049 Y168.963
G1 F1200 X67.534 Y174.448 E114.73328
G0 F6000 X68.1 Y174.448
G1 F1200 X62.049 Y168.398 E115.01788
G0 F6000 X62.049 Y167.832
G1 F1200 X68.665 Y174.448 E115.32907
G0 F6000 X69.231 Y174.448
G1 F1200 X62.049 Y167.266 E115.66689
G0 F6000 X62.049 Y166.701
G1 F1200 X69.797 Y174.448 E116.03131
G0 F6000 X70.362 Y174.448
G1 F1200 X62.049 Y166.135 E116.42233
G0 F6000 X62.049 Y165.569
G1 F1200 X70.928 Y174.448 E116.83997
G0 F6000 X71.494 Y174.448
G1 F1200 X62.049 Y165.004 E117.28421
G0 F6000 X62.049 Y164.438
G1 F1200 X72.059 Y174.448 E117.75505
G0 F6000 X72.625 Y174.448
G1 F1200 X62.049 Y163.872 E118.25251
G0 F6000 X62.049 Y163.307
G1 F1200 X73.191 Y174.448 E118.77657
G0 F6000 X73.756 Y174.448
G1 F1200 X62.049 Y162.741 E119.32724
G0 F6000 X62.049 Y162.175
G1 F1200 X74.322 Y174.448 E119.90452
G0 F6000 X74.888 Y174.448
G1 F1200 X62.049 Y161.609 E120.50843
G0 F6000 X62.049 Y161.044
G1 F1200 X75.453 Y174.448 E121.13891
G0 F6000 X76.019 Y174.448
G1 F1200 X62.049 Y160.478 E121.79602
G0 F6000 X62.049 Y159.912
G1 F1200 X76.585 Y174.448 E122.47974
G0 F6000 X77.151 Y174.448
G1 F1200 X62.049 Y159.347 E123.19007
G0 F6000 X62.049 Y158.781
G1 F1200 X77.716 Y174.448 E123.927
G0 F6000 X78.282 Y174.448
G1 F1200 X62.049 Y158.215 E124.69055
G0 F6000 X62.049 Y157.65
G1 F1200 X78.848 Y174.448 E125.4807
G0 F6000 X79.413 Y174.448
G1 F1200 X62.049 Y157.084 E126.29745
G0 F6000 X62.049 Y156.518
G1 F1200 X79.979 Y174.448 E127.14082
G0 F6000 X80.545 Y174.448
G1 F1200 X62.049 Y155.953 E128.01079
G0 F6000 X62.049 Y155.387
G1 F1200 X81.11 Y174.448 E128.90736
G0 F6000 X81.676 Y174.448
G1 F1200 X62.049 Y154.821 E129.83056
G0 F6000 X62.049 Y154.256
G1 F1200 X82.242 Y174.448 E130.78035
G0 F6000 X82.807 Y174.448
G1 F1200 X62.049 Y153.69 E131.75674
G0 F6000 X62.049 Y153.124
G1 F1200 X83.373 Y174.448 E132.75976
G0 F6000 X83.939 Y174.448
G1 F1200 X62.049 Y152.558 E133.7894
G0 F6000 X62.049 Y151.993
G1 F1200 X84.504 Y174.448 E134.84561
G0 F6000 X85.07 Y174.448
G1 F1200 X62.049 Y151.427 E135.92845
G0 F6000 X62.049 Y150.861
G1 F1200 X85.636 Y174.448 E137.03791
G0 F6000 X86.201 Y174.448
G1 F1200 X62.049 Y150.296 E138.17395
G0 F6000 X62.049 Y149.73
G1 F1200 X86.767 Y174.448 E139.33661
G0 F6000 X87.333 Y174.448
G1 F1200 X62.049 Y149.164 E140.52589
G0 F6000 X62.049 Y148.599
G1 F1200 X87.899 Y174.448 E141.74177
G0 F6000 X88.464 Y174.448
G1 F1200 X62.049 Y148.033 E142.98425
G0 F6000 X62.049 Y147.467
G1 F1200 X89.03 Y174.448 E144.25335
G0 F6000 X89.596 Y174.448
G1 F1200 X62.049 Y146.902 E145.54906
G0 F6000 X62.049 Y146.336
G1 F1200 X90.161 Y174.448 E146.87136
G0 F6000 X90.727 Y174.448
G1 F1200 X62.049 Y145.77 E148.22028
G0 F6000 X62.049 Y145.205
G1 F1200 X91.293 Y174.448 E149.59581
G0 F6000 X91.858 Y174.448
G1 F1200 X62.049 Y144.639 E150.99793
G0 F6000 X62.049 Y144.073
G1 F1200 X92.424 Y174.448 E152.42668
G0 F6000 X92.99 Y174.448
G1 F1200 X62.049 Y143.508 E153.88202
G0 F6000 X62.049 Y142.942
G1 F1200 X93.555 Y174.448 E155.36397
G0 F6000 X94.121 Y174.448
G1 F1200 X62.049 Y142.376 E156.87254
G0 F6000 X62.049 Y141.81
G1 F1200 X94.687 Y174.448 E158.40773
G0 F6000 X95.252 Y174.448
G1 F1200 X62.049 Y141.245 E159.9695
G0 F6000 X62.049 Y140.679
G1 F1200 X95.818 Y174.448 E161.55789
G0 F6000 X96.384 Y174.448
G1 F1200 X62.049 Y140.113 E163.1729
G0 F6000 X62.049 Y139.548
G1 F1200 X96.949 Y174.448 E164.81449
G0 F6000 X97.515 Y174.448
G1 F1200 X62.049 Y138.982 E166.4827
G0 F6000 X62.049 Y138.416
G1 F1200 X98.081 Y174.448 E168.17754
G0 F6000 X98.647 Y174.448
G1 F1200 X62.049 Y137.851 E169.89897
G0 F6000 X62.049 Y137.285
G1 F1200 X99.212 Y174.448 E171.647
G0 F6000 X99.778 Y174.448
G1 F1200 X62.049 Y136.719 E173.42166
G0 F6000 X62.049 Y136.154
G1 F1200 X100.344 Y174.448 E175.22292
G0 F6000 X100.909 Y174.448
G1 F1200 X62.049 Y135.588 E177.05077
G0 F6000 X62.049 Y135.022
G1 F1200 X101.475 Y174.448 E178.90525
G0 F6000 X102.041 Y174.448
G1 F1200 X62.049 Y134.457 E180.78633
G0 F6000 X62.049 Y133.891
G1 F1200 X102.606 Y174.448 E182.694
G0 F6000 X103.172 Y174.448
G1 F1200 X62.049 Y133.325 E184.6283
G0 F6000 X62.049 Y132.76
G1 F1200 X103.738 Y174.448 E186.5892
G0 F6000 X104.303 Y174.448
G1 F1200 X62.049 Y132.194 E188.5767
G0 F6000 X62.049 Y131.628
G1 F1200 X104.869 Y174.448 E190.59082
G0 F6000 X105.435 Y174.448
G1 F1200 X62.049 Y131.062 E192.63157
G0 F6000 X62.049 Y130.497
G1 F1200 X106 Y174.448 E194.69889
G0 F6000 X106.566 Y174.448
G1 F1200 X62.049 Y129.931 E196.79283
G0 F6000 X62.049 Y129.365
G1 F1200 X107.132 Y174.448 E198.9134
G0 F6000 X107.698 Y174.448
G1 F1200 X62.049 Y128.8 E201.06056
G0 F6000 X62.049 Y128.234
G1 F1200 X108.263 Y174.448 E203.23433
G0 F6000 X108.829 Y174.448
G1 F1200 X62.049 Y127.668 E205.43472
G0 F6000 X62.049 Y127.103
G1 F1200 X109.395 Y174.448 E207.6617
G0 F6000 X109.96 Y174.448
G1 F1200 X62.049 Y126.537 E209.91529
G0 F6000 X62.049 Y125.971
G1 F1200 X110.526 Y174.448 E212.1955
G0 F6000 X111.092 Y174.448
G1 F1200 X62.049 Y125.406 E214.50231
G0 F6000 X62.049 Y124.84
G1 F1200 X111.657 Y174.448 E216.83572
G0 F6000 X112.223 Y174.448
G1 F1200 X62.049 Y124.274 E219.19575
G0 F6000 X62.049 Y123.709
G1 F1200 X112.789 Y174.448 E221.58238
G0 F6000 X113.354 Y174.448
G1 F1200 X62.049 Y123.143 E223.99561
G0 F6000 X62.049 Y122.577
