;FLAVOR:Marlin
;TIME:25037
;Filament used: 12.5686m
;Layer height: 0.2
;MINX:43.7
;MINY:33.7
;MINZ:0.2
;MAXX:176.3
;MAXY:186.3
;MAXZ:2
;Generated with Cura_SteamEngine 4.4.1
M140 S60
M105
M190 S60
M104 S200
M105
M109 S200
M82 ;absolute extrusion mode
M201 X500.00 Y500.00 Z100.00 E5000.00 ;Setup machine max acceleration
M203 X500.00 Y500.00 Z10.00 E50.00 ;Setup machine max feedrate
M204 P500.00 R1000.00 T500.00 ;Setup Print/Retract/Travel acceleration
M205 X8.00 Y8.00 Z0.40 E5.00 ;Setup Jerk
M220 S100 ;Reset Feedrate
M221 S100 ;Reset Flowrate

G28 ;Home

G92 E0 ;Reset Extruder
G1 Z2.0 F3000 ;Move Z Axis up
G1 X10.1 Y20 Z0.28 F5000.0 ;Move to start position
G1 X10.1 Y200.0 Z0.28 F1500.0 E15 ;Draw the first line
G1 X10.4 Y200.0 Z0.28 F5000.0 ;Move to side a little
G1 X10.4 Y20 Z0.28 F1500.0 E30 ;Draw the second line
G92 E0 ;Reset Extruder
G1 Z2.0 F3000 ;Move Z Axis up

G92 E0
G92 E0
G1 F1500 E-6.5
;LAYER_COUNT:10
;LAYER:0
M107
G0 F6000 X45.58 Y36.422 Z0.2
;TYPE:SKIRT
G1 F1500 E0
G1 F1200 X46.123 Y35.849 E0.02626
G1 X46.722 Y35.334 E0.05253
G1 X47.37 Y34.883 E0.07879
G1 X48.061 Y34.499 E0.10508
G1 X48.786 Y34.187 E0.13133
G1 X49.539 Y33.95 E0.15759
G1 X50.313 Y33.791 E0.18387
G1 X51.098 Y33.71 E0.21012
G1 X51.5 Y33.7 E0.22349
G1 X168.5 Y33.7 E4.11493
G1 X169.289 Y33.74 E4.1412
G1 X170.069 Y33.859 E4.16745
G1 X170.834 Y34.057 E4.19373
G1 X171.574 Y34.331 E4.21998
G1 X172.283 Y34.679 E4.24624
G1 X172.954 Y35.097 E4.27254
G1 X173.578 Y35.58 E4.29878
G1 X174.151 Y36.123 E4.32504
G1 X174.666 Y36.722 E4.35131
G1 X175.117 Y37.37 E4.37757
G1 X175.501 Y38.061 E4.40387
G1 X175.813 Y38.786 E4.43012
G1 X176.05 Y39.539 E4.45637
G1 X176.209 Y40.313 E4.48265
G1 X176.29 Y41.098 E4.5089
G1 X176.3 Y41.5 E4.52228
G1 X176.3 Y178.5 E9.07892
G1 X176.26 Y179.289 E9.10519
G1 X176.141 Y180.069 E9.13143
G1 X175.943 Y180.834 E9.15772
G1 X175.669 Y181.574 E9.18396
G1 X175.321 Y182.283 E9.21023
G1 X174.903 Y182.954 E9.23653
G1 X174.42 Y183.578 E9.26277
G1 X173.877 Y184.151 E9.28903
G1 X173.278 Y184.666 E9.3153
G1 X172.63 Y185.117 E9.34156
G1 X171.939 Y185.501 E9.36785
G1 X171.214 Y185.813 E9.3941
G1 X170.461 Y186.05 E9.42036
G1 X169.687 Y186.209 E9.44664
G1 X168.902 Y186.29 E9.47289
G1 X168.5 Y186.3 E9.48626
G1 X51.5 Y186.3 E13.3777
G1 X50.711 Y186.26 E13.40398
G1 X49.931 Y186.141 E13.43022
G1 X49.166 Y185.943 E13.4565
G1 X48.426 Y185.669 E13.48275
G1 X47.717 Y185.321 E13.50902
G1 X47.046 Y184.903 E13.53531
G1 X46.422 Y184.42 E13.56155
G1 X45.849 Y183.877 E13.58781
G1 X45.334 Y183.278 E13.61408
G1 X44.883 Y182.63 E13.64034
G1 X44.499 Y181.939 E13.66664
G1 X44.187 Y181.214 E13.69289
G1 X43.95 Y180.461 E13.71914
G1 X43.791 Y179.687 E13.74542
G1 X43.71 Y178.902 E13.77167
G1 X43.7 Y178.5 E13.78505
G1 X43.7 Y41.5 E18.34169
G1 X43.74 Y40.711 E18.36796
G1 X43.859 Y39.931 E18.3942
G1 X44.057 Y39.166 E18.42049
G1 X44.331 Y38.426 E18.44673
G1 X44.679 Y37.717 E18.473
G1 X45.097 Y37.046 E18.4993
G1 X45.58 Y36.422 E18.52554
G0 F6000 X45.975 Y36.577
G1 F1200 X46.516 Y36.03 E18.55113
G1 X47.111 Y35.542 E18.57672
G1 X47.753 Y35.119 E18.60229
G1 X48.436 Y34.764 E18.6279
G1 X49.151 Y34.483 E18.65345
G1 X49.893 Y34.277 E18.67906
G1 X50.651 Y34.149 E18.70463
G1 X51.5 Y34.1 E18.73291
G1 X168.5 Y34.1 E22.62435
G1 X169.268 Y34.14 E22.64993
G1 X170.028 Y34.259 E22.67551
G1 X170.771 Y34.457 E22.70109
G1 X171.49 Y34.731 E22.72668
G1 X172.176 Y35.078 E22.75225
G1 X172.823 Y35.494 E22.77783
G1 X173.423 Y35.975 E22.80341
G1 X173.97 Y36.516 E22.829
G1 X174.458 Y37.111 E22.85459
G1 X174.881 Y37.753 E22.88016
G1 X175.236 Y38.436 E22.90577
G1 X175.517 Y39.151 E22.93132
G1 X175.723 Y39.893 E22.95693
G1 X175.851 Y40.651 E22.9825
G1 X175.9 Y41.5 E23.01078
G1 X175.9 Y178.5 E27.56742
G1 X175.86 Y179.268 E27.593
G1 X175.741 Y180.028 E27.61859
G1 X175.543 Y180.771 E27.64416
G1 X175.269 Y181.49 E27.66975
G1 X174.922 Y182.176 E27.69532
G1 X174.506 Y182.823 E27.72091
G1 X174.025 Y183.423 E27.74648
G1 X173.484 Y183.97 E27.77207
G1 X172.889 Y184.458 E27.79767
G1 X172.247 Y184.881 E27.82324
G1 X171.564 Y185.236 E27.84884
G1 X170.849 Y185.517 E27.87439
G1 X170.107 Y185.723 E27.9
G1 X169.349 Y185.851 E27.92557
G1 X168.5 Y185.9 E27.95386
G1 X51.5 Y185.9 E31.84529
G1 X50.732 Y185.86 E31.87087
G1 X49.972 Y185.741 E31.89646
G1 X49.229 Y185.543 E31.92203
G1 X48.51 Y185.269 E31.94762
G1 X47.824 Y184.922 E31.97319
G1 X47.177 Y184.506 E31.99877
G1 X46.577 Y184.025 E32.02435
G1 X46.03 Y183.484 E32.04994
G1 X45.542 Y182.889 E32.07553
G1 X45.119 Y182.247 E32.10111
G1 X44.764 Y181.564 E32.12671
G1 X44.483 Y180.849 E32.15226
G1 X44.277 Y180.107 E32.17787
G1 X44.149 Y179.349 E32.20344
G1 X44.1 Y178.5 E32.23173
G1 X44.1 Y41.5 E36.78836
G1 X44.14 Y40.732 E36.81394
G1 X44.259 Y39.972 E36.83953
G1 X44.457 Y39.229 E36.8651
G1 X44.731 Y38.51 E36.89069
G1 X45.078 Y37.824 E36.91626
G1 X45.494 Y37.177 E36.94185
G1 X45.975 Y36.577 E36.96742
G0 F6000 X46.371 Y36.737
G1 F1200 X46.908 Y36.216 E36.99231
G1 X47.498 Y35.757 E37.01717
G1 X48.134 Y35.362 E37.04207
G1 X48.808 Y35.038 E37.06695
G1 X49.513 Y34.788 E37.09183
G1 X50.241 Y34.614 E37.11672
G1 X50.983 Y34.519 E37.1416
G1 X51.5 Y34.5 E37.15881
G1 X168.5 Y34.5 E41.05024
G1 X169.247 Y34.54 E41.07512
G1 X169.985 Y34.659 E41.09999
G1 X170.707 Y34.857 E41.12489
G1 X171.403 Y35.13 E41.14975
G1 X172.066 Y35.477 E41.17464
G1 X172.689 Y35.892 E41.19954
G1 X173.263 Y36.371 E41.22441
G1 X173.784 Y36.908 E41.24929
G1 X174.243 Y37.498 E41.27415
G1 X174.638 Y38.134 E41.29906
G1 X174.962 Y38.808 E41.32393
G1 X175.212 Y39.513 E41.34881
G1 X175.386 Y40.241 E41.3737
G1 X175.481 Y40.983 E41.39858
G1 X175.5 Y41.5 E41.41579
G1 X175.5 Y178.5 E45.97243
G1 X175.46 Y179.247 E45.99731
G1 X175.341 Y179.985 E46.02217
G1 X175.143 Y180.707 E46.04707
G1 X174.87 Y181.403 E46.07194
G1 X174.523 Y182.066 E46.09683
G1 X174.108 Y182.689 E46.12173
G1 X173.629 Y183.263 E46.14659
G1 X173.092 Y183.784 E46.17148
G1 X172.502 Y184.243 E46.19634
G1 X171.866 Y184.638 E46.22124
G1 X171.192 Y184.962 E46.24611
G1 X170.487 Y185.212 E46.27099
G1 X169.759 Y185.386 E46.29589
G1 X169.017 Y185.481 E46.32077
G1 X168.5 Y185.5 E46.33798
G1 X51.5 Y185.5 E50.22941
G1 X50.753 Y185.46 E50.25429
G1 X50.015 Y185.341 E50.27916
G1 X49.293 Y185.143 E50.30406
G1 X48.597 Y184.87 E50.32892
G1 X47.934 Y184.523 E50.35381
G1 X47.311 Y184.108 E50.37871
G1 X46.737 Y183.629 E50.40357
G1 X46.216 Y183.092 E50.42846
G1 X45.757 Y182.502 E50.45332
G1 X45.362 Y181.866 E50.47822
G1 X45.038 Y181.192 E50.5031
G1 X44.788 Y180.487 E50.52798
G1 X44.614 Y179.759 E50.55287
G1 X44.519 Y179.017 E50.57775
G1 X44.5 Y178.5 E50.59496
G1 X44.5 Y41.5 E55.1516
G1 X44.54 Y40.753 E55.17648
G1 X44.659 Y40.015 E55.20134
G1 X44.857 Y39.293 E55.22624
G1 X45.13 Y38.597 E55.25111
G1 X45.477 Y37.934 E55.276
G1 X45.892 Y37.311 E55.30089
G1 X46.371 Y36.737 E55.32576
G0 F6000 X46.289 Y37.45
G1 F1200 X46.765 Y36.902 E55.3499
G1 X47.299 Y36.409 E55.37407
G1 X47.884 Y35.979 E55.39822
G1 X48.513 Y35.615 E55.42239
G1 X49.178 Y35.322 E55.44656
G1 X49.871 Y35.104 E55.47073
G1 X50.583 Y34.964 E55.49486
G1 X51.5 Y34.9 E55.52543
G1 X168.5 Y34.9 E59.41687
G1 X169.225 Y34.94 E59.44102
G1 X169.942 Y35.059 E59.46519
G1 X170.641 Y35.257 E59.48936
G1 X171.314 Y35.53 E59.51351
G1 X171.953 Y35.875 E59.53767
G1 X172.55 Y36.289 E59.56183
G1 X173.098 Y36.765 E59.58597
G1 X173.591 Y37.299 E59.61015
G1 X174.021 Y37.884 E59.63429
G1 X174.385 Y38.513 E59.65846
G1 X174.678 Y39.178 E59.68263
G1 X174.896 Y39.871 E59.7068
G1 X175.036 Y40.583 E59.73093
G1 X175.1 Y41.5 E59.76151
G1 X175.1 Y178.5 E64.31814
G1 X175.06 Y179.225 E64.34229
G1 X174.941 Y179.942 E64.36647
G1 X174.743 Y180.641 E64.39063
G1 X174.47 Y181.314 E64.41479
G1 X174.125 Y181.953 E64.43894
G1 X173.711 Y182.55 E64.4631
G1 X173.235 Y183.098 E64.48725
G1 X172.701 Y183.591 E64.51142
G1 X172.116 Y184.021 E64.53557
G1 X171.487 Y184.385 E64.55974
G1 X170.822 Y184.678 E64.58391
G1 X170.129 Y184.896 E64.60807
G1 X169.417 Y185.036 E64.63221
G1 X168.5 Y185.1 E64.66278
G1 X51.5 Y185.1 E68.55421
G1 X50.775 Y185.06 E68.57836
G1 X50.058 Y184.941 E68.60254
G1 X49.359 Y184.743 E68.6267
G1 X48.686 Y184.47 E68.65086
G1 X48.047 Y184.125 E68.67501
G1 X47.45 Y183.711 E68.69917
G1 X46.902 Y183.235 E68.72332
G1 X46.409 Y182.701 E68.74749
G1 X45.979 Y182.116 E68.77164
G1 X45.615 Y181.487 E68.79581
G1 X45.322 Y180.822 E68.81998
G1 X45.104 Y180.129 E68.84414
G1 X44.964 Y179.417 E68.86828
G1 X44.9 Y178.5 E68.89885
G1 X44.9 Y41.5 E73.45549
G1 X44.94 Y40.775 E73.47964
G1 X45.059 Y40.058 E73.50381
G1 X45.257 Y39.359 E73.52798
G1 X45.53 Y38.686 E73.55213
G1 X45.875 Y38.047 E73.57628
G1 X46.289 Y37.45 E73.60045
G0 F6000 X46.685 Y37.594
G1 F1200 X47.159 Y37.073 E73.62387
G1 X47.689 Y36.609 E73.6473
G1 X48.268 Y36.209 E73.67071
G1 X48.889 Y35.877 E73.69413
G1 X49.543 Y35.617 E73.71754
G1 X50.223 Y35.433 E73.74097
G1 X50.919 Y35.327 E73.76439
G1 X51.5 Y35.3 E73.78373
G1 X168.5 Y35.3 E77.67517
G1 X169.203 Y35.34 E77.69859
G1 X169.897 Y35.459 E77.72201
G1 X170.572 Y35.657 E77.7454
G1 X171.221 Y35.929 E77.76881
G1 X171.835 Y36.274 E77.79223
G1 X172.406 Y36.685 E77.81563
G1 X172.927 Y37.159 E77.83906
G1 X173.391 Y37.689 E77.86249
G1 X173.791 Y38.268 E77.88589
G1 X174.123 Y38.889 E77.90931
G1 X174.383 Y39.543 E77.93272
G1 X174.567 Y40.223 E77.95615
G1 X174.673 Y40.919 E77.97957
G1 X174.7 Y41.5 E77.99891
G1 X174.7 Y178.5 E82.55555
G1 X174.66 Y179.203 E82.57897
G1 X174.541 Y179.897 E82.60239
G1 X174.343 Y180.572 E82.62579
G1 X174.071 Y181.221 E82.64919
G1 X173.726 Y181.835 E82.67262
G1 X173.315 Y182.406 E82.69602
G1 X172.841 Y182.927 E82.71944
G1 X172.311 Y183.391 E82.74287
G1 X171.732 Y183.791 E82.76628
G1 X171.111 Y184.123 E82.7897
G1 X170.457 Y184.383 E82.81311
G1 X169.777 Y184.567 E82.83654
G1 X169.081 Y184.673 E82.85995
G1 X168.5 Y184.7 E82.8793
G1 X51.5 Y184.7 E86.77073
G1 X50.797 Y184.66 E86.79415
G1 X50.103 Y184.541 E86.81757
G1 X49.428 Y184.343 E86.84097
G1 X48.779 Y184.071 E86.86438
G1 X48.165 Y183.726 E86.8878
G1 X47.594 Y183.315 E86.9112
G1 X47.073 Y182.841 E86.93463
G1 X46.609 Y182.311 E86.95806
G1 X46.209 Y181.732 E86.98146
G1 X45.877 Y181.111 E87.00488
G1 X45.617 Y180.457 E87.02829
G1 X45.433 Y179.777 E87.05172
G1 X45.327 Y179.081 E87.07514
G1 X45.3 Y178.5 E87.09448
G1 X45.3 Y41.5 E91.65112
G1 X45.34 Y40.797 E91.67454
G1 X45.459 Y40.103 E91.69796
G1 X45.657 Y39.428 E91.72136
G1 X45.929 Y38.779 E91.74476
G1 X46.274 Y38.165 E91.76819
G1 X46.685 Y37.594 E91.79159
G0 F6000 X47.082 Y37.742
G1 F1200 X47.553 Y37.251 E91.81422
G1 X48.078 Y36.817 E91.83687
G1 X48.65 Y36.448 E91.85951
G1 X49.262 Y36.149 E91.88217
G1 X49.904 Y35.924 E91.90479
G1 X50.569 Y35.775 E91.92746
G1 X51.5 Y35.7 E91.95852
G1 X168.5 Y35.7 E95.84996
G1 X169.18 Y35.74 E95.87262
G1 X169.85 Y35.859 E95.89525
G1 X170.502 Y36.056 E95.9179
G1 X171.126 Y36.328 E95.94054
G1 X171.714 Y36.672 E95.9632
G1 X172.258 Y37.082 E95.98586
G1 X172.749 Y37.553 E96.00849
G1 X173.183 Y38.078 E96.03114
G1 X173.552 Y38.65 E96.05378
G1 X173.851 Y39.262 E96.07644
G1 X174.076 Y39.904 E96.09906
G1 X174.225 Y40.569 E96.12173
G1 X174.3 Y41.5 E96.1528
G1 X174.3 Y178.5 E100.70943
G1 X174.26 Y179.18 E100.73209
G1 X174.141 Y179.85 E100.75472
G1 X173.944 Y180.502 E100.77738
G1 X173.672 Y181.126 E100.80002
G1 X173.328 Y181.714 E100.82268
G1 X172.918 Y182.258 E100.84533
G1 X172.447 Y182.749 E100.86796
G1 X171.922 Y183.183 E100.89062
G1 X171.35 Y183.552 E100.91326
G1 X170.738 Y183.851 E100.93591
G1 X170.096 Y184.076 E100.95854
G1 X169.431 Y184.225 E100.9812
G1 X168.5 Y184.3 E101.01227
G1 X51.5 Y184.3 E104.90371
G1 X50.82 Y184.26 E104.92636
G1 X50.15 Y184.141 E104.949
G1 X49.498 Y183.944 E104.97165
G1 X48.874 Y183.672 E104.99429
G1 X48.286 Y183.328 E105.01695
G1 X47.742 Y182.918 E105.0396
G1 X47.251 Y182.447 E105.06223
G1 X46.817 Y181.922 E105.08489
G1 X46.448 Y181.35 E105.10753
G1 X46.149 Y180.738 E105.13018
G1 X45.924 Y180.096 E105.15281
G1 X45.775 Y179.431 E105.17548
G1 X45.7 Y178.5 E105.20654
G1 X45.7 Y41.5 E109.76318
G1 X45.74 Y40.82 E109.78584
G1 X45.859 Y40.15 E109.80847
G1 X46.056 Y39.498 E109.83112
G1 X46.328 Y38.874 E109.85376
G1 X46.672 Y38.286 E109.87642
G1 X47.082 Y37.742 E109.89908
G0 F6000 X47.478 Y37.897
G1 F1200 X47.945 Y37.435 E109.92093
G1 X48.465 Y37.034 E109.94277
G1 X49.029 Y36.698 E109.9646
G1 X49.631 Y36.434 E109.98647
G1 X50.26 Y36.244 E110.00832
G1 X50.907 Y36.133 E110.03016
G1 X51.5 Y36.1 E110.04991
G1 X168.5 Y36.1 E113.94134
G1 X169.156 Y36.14 E113.9632
G1 X169.802 Y36.259 E113.98505
G1 X170.429 Y36.456 E114.00691
G1 X171.027 Y36.728 E114.02876
G1 X171.588 Y37.07 E114.05061
G1 X172.103 Y37.478 E114.07247
G1 X172.565 Y37.945 E114.09432
G1 X172.966 Y38.465 E114.11616
G1 X173.302 Y39.029 E114.13799
G1 X173.566 Y39.631 E114.15985
G1 X173.756 Y40.26 E114.18171
G1 X173.867 Y40.907 E114.20354
G1 X173.9 Y41.5 E114.2233
G1 X173.9 Y178.5 E118.77994
G1 X173.86 Y179.156 E118.80179
G1 X173.741 Y179.802 E118.82364
G1 X173.544 Y180.429 E118.8455
G1 X173.272 Y181.027 E118.86735
G1 X172.93 Y181.588 E118.8892
G1 X172.522 Y182.103 E118.91106
G1 X172.055 Y182.565 E118.93291
G1 X171.535 Y182.966 E118.95475
G1 X170.971 Y183.302 E118.97658
G1 X170.369 Y183.566 E118.99845
G1 X169.74 Y183.756 E119.0203
G1 X169.093 Y183.867 E119.04213
G1 X168.5 Y183.9 E119.06189
G1 X51.5 Y183.9 E122.95332
G1 X50.844 Y183.86 E122.97518
G1 X50.198 Y183.741 E122.99703
G1 X49.571 Y183.544 E123.01889
G1 X48.973 Y183.272 E123.04074
G1 X48.412 Y182.93 E123.06259
G1 X47.897 Y182.522 E123.08444
G1 X47.435 Y182.055 E123.10629
G1 X47.034 Y181.535 E123.12813
G1 X46.698 Y180.971 E123.14997
G1 X46.434 Y180.369 E123.17183
G1 X46.244 Y179.74 E123.19369
G1 X46.133 Y179.093 E123.21552
G1 X46.1 Y178.5 E123.23527
G1 X46.1 Y41.5 E127.79191
G1 X46.14 Y40.844 E127.81377
G1 X46.259 Y40.198 E127.83562
G1 X46.456 Y39.571 E127.85748
G1 X46.728 Y38.973 E127.87933
G1 X47.07 Y38.412 E127.90118
G1 X47.478 Y37.897 E127.92304
G0 F6000 X47.873 Y38.059
G1 F1200 X48.336 Y37.629 E127.94405
G1 X48.85 Y37.26 E127.9651
G1 X49.406 Y36.96 E127.98611
G1 X49.995 Y36.732 E128.00712
G1 X50.609 Y36.58 E128.02815
G1 X51.5 Y36.5 E128.05791
G1 X168.5 Y36.5 E131.94934
G1 X169.131 Y36.54 E131.97037
G1 X169.752 Y36.659 E131.9914
G1 X170.352 Y36.856 E132.01241
G1 X170.924 Y37.127 E132.03346
G1 X171.456 Y37.467 E132.05446
G1 X171.941 Y37.873 E132.0755
G1 X172.371 Y38.336 E132.09651
G1 X172.74 Y38.85 E132.11756
G1 X173.04 Y39.406 E132.13857
G1 X173.268 Y39.995 E132.15958
G1 X173.42 Y40.609 E132.18062
G1 X173.5 Y41.5 E132.21037
G1 X173.5 Y178.5 E136.76701
G1 X173.46 Y179.131 E136.78804
G1 X173.341 Y179.752 E136.80907
G1 X173.144 Y180.352 E136.83007
G1 X172.873 Y180.924 E136.85112
G1 X172.533 Y181.456 E136.87212
G1 X172.127 Y181.941 E136.89316
G1 X171.664 Y182.371 E136.91418
G1 X171.15 Y182.74 E136.93522
G1 X170.594 Y183.04 E136.95623
G1 X170.005 Y183.268 E136.97724
G1 X169.391 Y183.42 E136.99828
G1 X168.5 Y183.5 E137.02803
G1 X51.5 Y183.5 E140.91947
G1 X50.869 Y183.46 E140.9405
G1 X50.248 Y183.341 E140.96153
G1 X49.648 Y183.144 E140.98253
G1 X49.076 Y182.873 E141.00358
G1 X48.544 Y182.533 E141.02458
G1 X48.059 Y182.127 E141.04562
G1 X47.629 Y181.664 E141.06664
G1 X47.26 Y181.15 E141.08768
G1 X46.96 Y180.594 E141.1087
G1 X46.732 Y180.005 E141.1297
G1 X46.58 Y179.391 E141.15074
G1 X46.5 Y178.5 E141.18049
G1 X46.5 Y41.5 E145.73713
G1 X46.54 Y40.869 E145.75816
G1 X46.659 Y40.248 E145.77919
G1 X46.856 Y39.648 E145.8002
G1 X47.127 Y39.076 E145.82125
G1 X47.467 Y38.544 E145.84225
G1 X47.873 Y38.059 E145.86329
G0 F6000 X47.865 Y38.681
G1 F1200 X48.267 Y38.228 E145.88343
G1 X48.725 Y37.831 E145.90359
G1 X49.232 Y37.498 E145.92376
G1 X49.778 Y37.234 E145.94393
