;FLAVOR:Marlin
;TIME:9124
;Filament used: 6.67903m
;Layer height: 0.2
;MINX:50.977
;MINY:56.924
;MINZ:0.2
;MAXX:169.033
;MAXY:163.075
;MAXZ:10.2
;Generated with Cura_SteamEngine 4.4.1
M140 S60
M105
M190 S60
M104 S200
M105
M109 S200
M82 ;absolute extrusion mode
M201 X500.00 Y500.00 Z100.00 E5000.00 ;Setup machine max acceleration
M203 X500.00 Y500.00 Z10.00 E50.00 ;Setup machine max feedrate
M204 P500.00 R1000.00 T500.00 ;Setup Print/Retract/Travel acceleration
M205 X8.00 Y8.00 Z0.40 E5.00 ;Setup Jerk
M220 S100 ;Reset Feedrate
M221 S100 ;Reset Flowrate

G28 ;Home

G92 E0 ;Reset Extruder
G1 Z2.0 F3000 ;Move Z Axis up
G1 X10.1 Y20 Z0.28 F5000.0 ;Move to start position
G1 X10.1 Y200.0 Z0.28 F1500.0 E15 ;Draw the first line
G1 X10.4 Y200.0 Z0.28 F5000.0 ;Move to side a little
G1 X10.4 Y20 Z0.28 F1500.0 E30 ;Draw the second line
G92 E0 ;Reset Extruder
G1 Z2.0 F3000 ;Move Z Axis up

G92 E0
G92 E0
G1 F1500 E-6.5
;LAYER_COUNT:51
;LAYER:0
M107
G0 F6000 X63.871 Y75.791 Z0.2
;TYPE:SKIRT
G1 F1500 E0
G1 F1200 X64.615 Y75.219 E0.03121
G1 X65.552 Y74.628 E0.06806
G1 X66.224 Y74.25 E0.0937
G1 X66.456 Y74.123 E0.1025
G1 X67.566 Y73.533 E0.14431
G1 X69.757 Y72.289 E0.22811
G1 X71.894 Y70.994 E0.31122
G1 X74.01 Y69.629 E0.39497
G1 X76.101 Y68.193 E0.47934
G1 X78.113 Y66.729 E0.5621
G1 X81.048 Y64.432 E0.68606
G1 X82.027 Y63.635 E0.72805
G1 X82.779 Y63.074 E0.75925
G1 X83.575 Y62.579 E0.79043
G1 X84.411 Y62.154 E0.82162
G1 X85.609 Y61.691 E0.86434
G1 X86.571 Y61.382 E0.89794
G1 X86.741 Y61.329 E0.90387
G1 X95.514 Y58.667 E1.20879
G1 X95.682 Y58.617 E1.21462
G1 X96.388 Y58.415 E1.23905
G1 X97.3 Y58.196 E1.27024
G1 X98.077 Y58.072 E1.29641
G1 X98.608 Y58.007 E1.31421
G1 X98.842 Y57.981 E1.32204
G1 X108.222 Y57.036 E1.6356
G1 X108.38 Y57.022 E1.64087
G1 X109.041 Y56.965 E1.66294
G1 X109.978 Y56.924 E1.69413
G1 X110.915 Y56.963 E1.72533
G1 X111.682 Y57.028 E1.75093
G1 X111.857 Y57.045 E1.75678
G1 X121.008 Y57.968 E2.06268
G1 X121.152 Y57.983 E2.0675
G1 X121.835 Y58.061 E2.09036
G1 X122.762 Y58.207 E2.12158
G1 X123.606 Y58.413 E2.15047
G1 X124.17 Y58.574 E2.16998
G1 X124.344 Y58.625 E2.17601
G1 X133.536 Y61.413 E2.49549
G1 X133.67 Y61.454 E2.50015
G1 X134.338 Y61.666 E2.52346
G1 X135.219 Y61.988 E2.55466
G1 X136.07 Y62.383 E2.58586
G1 X136.884 Y62.85 E2.61708
G1 X137.904 Y63.579 E2.65878
G1 X138.435 Y64.006 E2.68144
G1 X138.549 Y64.099 E2.68633
G1 X139.533 Y64.912 E2.72879
G1 X141.515 Y66.457 E2.81237
G1 X143.535 Y67.943 E2.89578
G1 X145.645 Y69.405 E2.98116
G1 X147.719 Y70.757 E3.0635
G1 X149.865 Y72.069 E3.14716
G1 X152.078 Y73.338 E3.23201
G1 X153.436 Y74.063 E3.28321
G1 X153.561 Y74.13 E3.28792
G1 X154.34 Y74.559 E3.3175
G1 X155.142 Y75.047 E3.34873
G1 X155.899 Y75.6 E3.37991
G1 X156.606 Y76.216 E3.4111
G1 X157.407 Y77.061 E3.44982
G1 X157.868 Y77.602 E3.47346
G1 X157.999 Y77.758 E3.48024
G1 X163.989 Y85.058 E3.79431
G1 X164.082 Y85.174 E3.79926
G1 X164.537 Y85.744 E3.82352
G1 X165.09 Y86.501 E3.8547
G1 X165.577 Y87.302 E3.88587
G1 X165.994 Y88.143 E3.9171
G1 X166.337 Y89.015 E3.94826
G1 X166.606 Y89.914 E3.97947
G1 X166.799 Y90.852 E4.01132
G1 X166.945 Y91.756 E4.04178
G1 X166.975 Y91.952 E4.04838
G1 X168.119 Y99.946 E4.31697
G1 X168.14 Y100.1 E4.32214
G1 X168.232 Y100.815 E4.34611
G1 X168.306 Y101.632 E4.3734
G1 X168.335 Y102.175 E4.39148
G1 X168.344 Y102.372 E4.39804
G1 X168.705 Y112.547 E4.73668
G1 X168.708 Y112.65 E4.74011
G1 X169.021 Y124.649 E5.13933
G1 X169.024 Y124.799 E5.14432
G1 X169.033 Y125.522 E5.16837
G1 X169.005 Y126.46 E5.19958
G1 X168.897 Y127.391 E5.23075
G1 X168.71 Y128.31 E5.26195
G1 X168.445 Y129.21 E5.29315
G1 X168.105 Y130.084 E5.32434
G1 X167.691 Y130.926 E5.35555
G1 X167.208 Y131.729 E5.38672
G1 X166.657 Y132.489 E5.41794
G1 X166.044 Y133.198 E5.44911
G1 X165.373 Y133.853 E5.4803
G1 X164.648 Y134.449 E5.51151
G1 X163.875 Y134.98 E5.54271
G1 X163.06 Y135.444 E5.5739
G1 X162.549 Y135.69 E5.59276
G1 X161.747 Y136.051 E5.62201
G1 X161.606 Y136.113 E5.62714
G1 X160.771 Y136.475 E5.65741
G1 X158.517 Y137.529 E5.74017
G1 X156.275 Y138.654 E5.8236
G1 X154.028 Y139.864 E5.90848
G1 X151.872 Y141.105 E5.99122
G1 X149.7 Y142.437 E6.07596
G1 X147.619 Y143.796 E6.15863
G1 X145.539 Y145.241 E6.24287
G1 X143.515 Y146.733 E6.3265
G1 X141.52 Y148.292 E6.41071
G1 X139.579 Y149.901 E6.49456
G1 X138.12 Y151.172 E6.55892
G1 X137.276 Y151.924 E6.59652
G1 X137.055 Y152.115 E6.60623
G1 X136.534 Y152.555 E6.62892
G1 X136.414 Y152.655 E6.63411
G1 X133.174 Y155.313 E6.7735
G1 X133.055 Y155.409 E6.77858
G1 X132.497 Y155.854 E6.80232
G1 X131.74 Y156.407 E6.8335
G1 X130.973 Y156.874 E6.86337
G1 X130.349 Y157.22 E6.8871
G1 X130.201 Y157.301 E6.89271
G1 X126.516 Y159.271 E7.03169
G1 X126.371 Y159.347 E7.03713
G1 X125.729 Y159.678 E7.06116
G1 X124.878 Y160.072 E7.09235
G1 X124.045 Y160.376 E7.12184
G1 X123.421 Y160.576 E7.14364
G1 X123.257 Y160.627 E7.14935
G1 X119.202 Y161.857 E7.29029
G1 X119.06 Y161.9 E7.29522
G1 X118.381 Y162.096 E7.31873
G1 X117.469 Y162.317 E7.34994
G1 X116.677 Y162.444 E7.37662
G1 X116.126 Y162.512 E7.39508
G1 X115.906 Y162.537 E7.40245
G1 X111.83 Y162.957 E7.53873
G1 X111.673 Y162.972 E7.54398
G1 X110.995 Y163.032 E7.56662
G1 X110.058 Y163.075 E7.59781
G1 X109.098 Y163.036 E7.62977
G1 X108.306 Y162.969 E7.65621
G1 X108.104 Y162.95 E7.66296
G1 X104.245 Y162.552 E7.79199
G1 X104.094 Y162.535 E7.79704
G1 X103.394 Y162.453 E7.82048
G1 X102.468 Y162.305 E7.85167
G1 X101.69 Y162.116 E7.8783
G1 X101.179 Y161.972 E7.89596
G1 X100.969 Y161.91 E7.90324
G1 X96.794 Y160.643 E8.04836
G1 X96.634 Y160.593 E8.05393
G1 X95.953 Y160.375 E8.07771
G1 X95.073 Y160.052 E8.10889
G1 X94.264 Y159.675 E8.13858
G1 X93.665 Y159.366 E8.161
G1 X93.523 Y159.291 E8.16634
G1 X89.826 Y157.315 E8.30576
G1 X89.696 Y157.245 E8.31067
G1 X89.06 Y156.894 E8.33483
G1 X88.259 Y156.406 E8.36603
G1 X87.509 Y155.857 E8.39694
G1 X86.788 Y155.281 E8.42764
G1 X86.678 Y155.192 E8.43234
G1 X83.585 Y152.655 E8.5654
G1 X83.454 Y152.546 E8.57106
G1 X82.959 Y152.127 E8.59263
G1 X82.734 Y151.931 E8.60256
G1 X82.053 Y151.322 E8.63294
G1 X80.079 Y149.607 E8.71992
G1 X78.162 Y148.034 E8.8024
G1 X76.137 Y146.467 E8.88756
G1 X74.103 Y144.983 E8.9713
G1 X72.041 Y143.566 E9.05452
G1 X69.955 Y142.217 E9.13714
G1 X67.78 Y140.896 E9.22178
G1 X65.585 Y139.647 E9.30578
G1 X63.371 Y138.469 E9.38919
G1 X61.12 Y137.352 E9.47277
G1 X58.097 Y135.971 E9.58331
G1 X57.591 Y135.751 E9.60166
G1 X56.748 Y135.34 E9.63285
G1 X55.942 Y134.86 E9.66405
G1 X55.181 Y134.312 E9.69524
G1 X54.469 Y133.702 E9.72643
G1 X53.811 Y133.033 E9.75764
G1 X53.213 Y132.311 E9.78882
G1 X52.679 Y131.54 E9.82001
G1 X52.212 Y130.727 E9.8512
G1 X51.816 Y129.876 E9.88242
G1 X51.494 Y128.996 E9.91358
G1 X51.248 Y128.091 E9.94478
G1 X51.08 Y127.168 E9.97598
G1 X50.992 Y126.234 E10.00718
G1 X50.977 Y125.609 E10.02798
G1 X50.982 Y124.594 E10.06173
G1 X50.986 Y124.356 E10.06965
G1 X51.323 Y111.684 E10.49127
G1 X51.326 Y111.583 E10.49463
G1 X51.648 Y102.576 E10.7944
G1 X51.655 Y102.42 E10.79959
G1 X51.693 Y101.659 E10.82494
G1 X51.763 Y100.853 E10.85184
G1 X51.817 Y100.418 E10.86642
G1 X51.844 Y100.216 E10.8732
G1 X53.053 Y91.758 E11.15738
G1 X53.077 Y91.596 E11.16282
G1 X53.186 Y90.907 E11.18602
G1 X53.372 Y89.988 E11.21721
G1 X53.636 Y89.088 E11.2484
G1 X53.975 Y88.213 E11.27962
G1 X54.387 Y87.371 E11.31079
G1 X54.87 Y86.567 E11.34199
G1 X55.417 Y85.81 E11.37305
G1 X55.938 Y85.15 E11.40102
G1 X56.069 Y84.988 E11.40795
G1 X62.016 Y77.741 E11.71975
G1 X62.118 Y77.618 E11.72507
G1 X62.544 Y77.114 E11.74702
G1 X63.179 Y76.424 E11.77821
G1 X63.871 Y75.791 E11.8094
G0 F6000 X64.154 Y76.076
G1 F1200 X64.886 Y75.517 E11.84003
G1 X65.748 Y74.976 E11.87388
G1 X66.42 Y74.598 E11.89953
G1 X66.643 Y74.476 E11.90798
G1 X67.787 Y73.868 E11.95107
G1 X69.941 Y72.645 E12.03345
G1 X72.112 Y71.329 E12.11789
G1 X74.248 Y69.951 E12.20244
G1 X76.341 Y68.514 E12.28688
G1 X78.328 Y67.069 E12.36859
G1 X81.29 Y64.75 E12.49371
G1 X82.279 Y63.945 E12.53613
G1 X83.018 Y63.395 E12.56677
G1 X83.801 Y62.911 E12.59738
G1 X84.623 Y62.497 E12.62799
G1 X85.731 Y62.072 E12.66746
G1 X86.693 Y61.763 E12.70107
G1 X86.857 Y61.712 E12.70678
G1 X95.63 Y59.05 E13.01171
G1 X95.792 Y59.002 E13.01733
G1 X96.498 Y58.8 E13.04175
G1 X97.393 Y58.585 E13.07237
G1 X98.126 Y58.47 E13.09705
G1 X98.657 Y58.405 E13.11484
G1 X98.882 Y58.379 E13.12237
G1 X108.262 Y57.434 E13.43593
G1 X108.414 Y57.42 E13.44101
G1 X109.075 Y57.363 E13.46308
G1 X109.995 Y57.324 E13.4937
G1 X110.881 Y57.362 E13.5232
G1 X111.648 Y57.427 E13.5488
G1 X111.817 Y57.443 E13.55445
G1 X120.968 Y58.366 E13.86035
G1 X121.107 Y58.38 E13.865
G1 X121.79 Y58.458 E13.88787
G1 X122.699 Y58.603 E13.91848
G1 X123.497 Y58.797 E13.9458
G1 X124.061 Y58.958 E13.9653
G1 X124.228 Y59.007 E13.97109
G1 X133.42 Y61.795 E14.29057
G1 X133.549 Y61.836 E14.29507
G1 X134.217 Y62.048 E14.31838
G1 X135.082 Y62.364 E14.34901
G1 X135.916 Y62.754 E14.37964
G1 X136.713 Y63.215 E14.41026
G1 X137.654 Y63.891 E14.4488
G1 X138.185 Y64.318 E14.47146
G1 X138.295 Y64.407 E14.47617
G1 X139.3 Y65.237 E14.51952
G1 X141.295 Y66.793 E14.60367
G1 X143.292 Y68.262 E14.68612
G1 X145.405 Y69.725 E14.7716
G1 X147.538 Y71.116 E14.8563
G1 X149.637 Y72.399 E14.93812
G1 X151.857 Y73.672 E15.02324
G1 X153.248 Y74.415 E15.07569
G1 X153.368 Y74.481 E15.08024
G1 X154.147 Y74.91 E15.10982
G1 X154.934 Y75.389 E15.14046
G1 X155.676 Y75.934 E15.17109
G1 X156.367 Y76.541 E15.20168
G1 X157.102 Y77.32 E15.2373
G1 X157.563 Y77.861 E15.26094
G1 X157.689 Y78.012 E15.26748
G1 X163.679 Y85.312 E15.58156
G1 X163.769 Y85.423 E15.58631
G1 X164.224 Y85.993 E15.61057
G1 X164.767 Y86.737 E15.6412
G1 X165.243 Y87.525 E15.67182
G1 X165.649 Y88.351 E15.70243
G1 X165.981 Y89.21 E15.73306
G1 X166.238 Y90.094 E15.76368
G1 X166.404 Y90.916 E15.79157
G1 X166.55 Y91.82 E15.82203
G1 X166.579 Y92.008 E15.82836
G1 X167.723 Y100.002 E16.09695
G1 X167.743 Y100.151 E16.10195
G1 X167.835 Y100.866 E16.12593
G1 X167.907 Y101.654 E16.15224
G1 X167.936 Y102.197 E16.17033
G1 X167.944 Y102.386 E16.17662
G1 X168.305 Y112.561 E16.51526
G1 X168.308 Y112.661 E16.51858
G1 X168.621 Y124.66 E16.91781
G1 X168.624 Y124.804 E16.9226
G1 X168.633 Y125.527 E16.94665
G1 X168.605 Y126.447 E16.97726
G1 X168.496 Y127.362 E17.00791
G1 X168.309 Y128.263 E17.03851
G1 X168.044 Y129.145 E17.06915
G1 X167.704 Y130 E17.09975
G1 X167.291 Y130.823 E17.13038
G1 X166.808 Y131.607 E17.161
G1 X166.259 Y132.346 E17.19162
G1 X165.648 Y133.034 E17.22223
G1 X164.979 Y133.667 E17.25286
G1 X164.258 Y134.239 E17.28347
G1 X163.49 Y134.747 E17.3141
G1 X162.385 Y135.325 E17.35557
G1 X161.583 Y135.686 E17.38483
G1 X161.447 Y135.746 E17.38977
G1 X160.621 Y136.104 E17.41971
G1 X158.347 Y137.167 E17.5032
G1 X156.058 Y138.317 E17.5884
G1 X153.845 Y139.508 E17.67199
G1 X151.669 Y140.76 E17.75549
G1 X149.494 Y142.094 E17.84035
G1 X147.386 Y143.471 E17.9241
G1 X145.295 Y144.923 E18.00877
G1 X143.293 Y146.399 E18.09149
G1 X141.265 Y147.985 E18.17712
G1 X139.346 Y149.575 E18.26001
G1 X137.765 Y150.952 E18.32974
G1 X137.01 Y151.625 E18.36338
G1 X136.797 Y151.809 E18.37275
G1 X136.276 Y152.249 E18.39543
G1 X136.16 Y152.346 E18.40046
G1 X132.92 Y155.004 E18.53984
G1 X132.806 Y155.096 E18.54471
G1 X132.248 Y155.541 E18.56845
G1 X131.504 Y156.084 E18.59909
G1 X130.779 Y156.524 E18.62729
G1 X130.155 Y156.87 E18.65103
G1 X130.012 Y156.948 E18.65644
G1 X126.327 Y158.918 E18.79542
G1 X126.188 Y158.992 E18.80066
G1 X125.546 Y159.323 E18.82468
G1 X124.71 Y159.708 E18.8553
G1 X123.923 Y159.995 E18.88316
G1 X123.299 Y160.195 E18.90495
G1 X123.141 Y160.245 E18.91046
G1 X119.086 Y161.475 E19.0514
G1 X118.949 Y161.515 E19.05615
G1 X118.27 Y161.711 E19.07965
G1 X117.375 Y161.928 E19.11028
G1 X116.628 Y162.047 E19.13544
G1 X116.077 Y162.115 E19.15391
G1 X115.865 Y162.139 E19.161
G1 X111.789 Y162.559 E19.29729
G1 X111.637 Y162.574 E19.30237
G1 X110.959 Y162.634 E19.32501
G1 X110.04 Y162.675 E19.35561
G1 X109.131 Y162.637 E19.38587
G1 X108.339 Y162.57 E19.4123
G1 X108.146 Y162.552 E19.41875
G1 X104.287 Y162.154 E19.54778
G1 X104.141 Y162.138 E19.55267
G1 X103.441 Y162.056 E19.57611
G1 X102.532 Y161.909 E19.60673
G1 X101.799 Y161.731 E19.63182
G1 X101.288 Y161.587 E19.64948
G1 X101.085 Y161.527 E19.65652
G1 X96.91 Y160.26 E19.80163
G1 X96.756 Y160.212 E19.807
G1 X96.075 Y159.994 E19.83078
G1 X95.211 Y159.676 E19.8614
G1 X94.447 Y159.319 E19.88945
G1 X93.848 Y159.01 E19.91187
G1 X93.711 Y158.938 E19.91702
G1 X90.014 Y156.962 E20.05644
G1 X89.889 Y156.894 E20.06117
G1 X89.253 Y156.543 E20.08534
G1 X88.467 Y156.064 E20.11595
G1 X87.759 Y155.545 E20.14515
G1 X87.038 Y154.969 E20.17584
G1 X86.932 Y154.883 E20.18038
G1 X83.839 Y152.346 E20.31343
G1 X83.713 Y152.241 E20.31889
G1 X83.218 Y151.822 E20.34046
G1 X83.001 Y151.633 E20.35003
G1 X82.299 Y151.005 E20.38136
G1 X80.367 Y149.327 E20.46647
G1 X78.376 Y147.694 E20.55212
G1 X76.394 Y146.16 E20.63547
G1 X74.36 Y144.675 E20.71924
G1 X72.262 Y143.234 E20.80389
G1 X70.134 Y141.857 E20.88819
G1 X67.98 Y140.549 E20.97201
G1 X65.791 Y139.304 E21.05577
G1 X63.53 Y138.101 E21.14095
G1 X61.335 Y137.011 E21.22246
G1 X58.2 Y135.579 E21.3371
G1 X57.751 Y135.384 E21.35338
G1 X56.923 Y134.981 E21.38401
G1 X56.134 Y134.507 E21.41462
G1 X55.388 Y133.966 E21.44527
G1 X54.692 Y133.363 E21.4759
G1 X54.052 Y132.702 E21.5065
G1 X53.471 Y131.988 E21.53712
G1 X52.954 Y131.226 E21.56775
G1 X52.505 Y130.422 E21.59837
G1 X52.128 Y129.582 E21.629
G1 X51.825 Y128.713 E21.65961
G1 X51.599 Y127.821 E21.69021
G1 X51.451 Y126.912 E21.72084
G1 X51.377 Y125.611 E21.76419
G1 X51.382 Y124.596 E21.79794
G1 X51.386 Y124.366 E21.8056
G1 X51.723 Y111.694 E22.22722
G1 X51.726 Y111.597 E22.23044
G1 X52.048 Y102.59 E22.53021
G1 X52.054 Y102.44 E22.5352
G1 X52.092 Y101.679 E22.56055
G1 X52.16 Y100.902 E22.58649
G1 X52.214 Y100.467 E22.60107
G1 X52.24 Y100.273 E22.60758
G1 X53.449 Y91.815 E22.89175
G1 X53.472 Y91.659 E22.897
G1 X53.581 Y90.97 E22.9202
G1 X53.764 Y90.067 E22.95084
G1 X54.025 Y89.185 E22.98143
G1 X54.362 Y88.328 E23.01206
G1 X54.771 Y87.503 E23.04269
G1 X55.251 Y86.717 E23.07332
G1 X55.731 Y86.058 E23.10044
G1 X56.252 Y85.398 E23.1284
G1 X56.378 Y85.242 E23.13507
G1 X62.325 Y77.995 E23.44688
G1 X62.423 Y77.876 E23.45201
G1 X62.849 Y77.372 E23.47396
G1 X63.474 Y76.696 E23.50458
G1 X64.154 Y76.076 E23.53518
G0 F6000 X64.437 Y76.361
G1 F1200 X65.157 Y75.816 E23.56522
G1 X65.944 Y75.325 E23.59607
G1 X66.616 Y74.947 E23.62171
G1 X66.831 Y74.83 E23.62985
G1 X67.923 Y74.25 E23.67098
G1 X70.166 Y72.976 E23.75678
G1 X72.331 Y71.664 E23.84097
G1 X74.469 Y70.284 E23.92561
G1 X76.556 Y68.852 E24.00979
G1 X78.588 Y67.373 E24.09339
G1 X81.534 Y65.068 E24.2178
G1 X82.532 Y64.255 E24.26061
G1 X83.257 Y63.716 E24.29066
G1 X84.026 Y63.244 E24.32067
G1 X84.835 Y62.841 E24.35073
G1 X85.854 Y62.453 E24.387
G1 X86.816 Y62.144 E24.4206
G1 X86.973 Y62.094 E24.42608
G1 X95.746 Y59.432 E24.73101
G1 X95.902 Y59.387 E24.73641
G1 X96.608 Y59.185 E24.76084
G1 X97.487 Y58.975 E24.79089
G1 X98.175 Y58.867 E24.81406
G1 X98.706 Y58.802 E24.83185
G1 X98.923 Y58.777 E24.83912
G1 X108.303 Y57.832 E25.15267
G1 X108.449 Y57.819 E25.15755
G1 X109.11 Y57.762 E25.17962
G1 X110.012 Y57.724 E25.20964
G1 X110.847 Y57.76 E25.23744
G1 X111.614 Y57.825 E25.26304
G1 X111.777 Y57.84 E25.26849
G1 X120.928 Y58.763 E25.5744
G1 X121.061 Y58.778 E25.57885
G1 X121.744 Y58.856 E25.60171
G1 X122.636 Y58.998 E25.63175
G1 X123.387 Y59.182 E25.65747
G1 X123.951 Y59.343 E25.67698
G1 X124.112 Y59.39 E25.68256
G1 X133.304 Y62.178 E26.00204
G1 X133.428 Y62.217 E26.00636
G1 X134.096 Y62.429 E26.02967
G1 X134.944 Y62.74 E26.05971
G1 X135.761 Y63.125 E26.08975
